static/images/arrow_down_yellow.svg

<svg width="100%" height="100%" viewBox="0 0 21 21" fill="none" xmlns="http://www.w3.org/2000/svg">
<path d="M10.3131 13C10.5556 13 10.7568 12.9143 10.9461 12.7258L15.4013 8.32754C15.5551 8.18474 15.632 8.00195 15.632 7.79061C15.632 7.3622 15.277 7.01948 14.8333 7.01948C14.6085 7.01948 14.4132 7.10516 14.2535 7.25939L10.3071 11.1664L6.37264 7.25939C6.21289 7.10516 6.01173 7.01948 5.79282 7.01948C5.34908 7.01948 5 7.3622 5 7.79061C5 8.00766 5.071 8.18474 5.22483 8.32754L9.67999 12.7258C9.86932 12.9143 10.0705 12.9943 10.3131 13Z" fill="#FAC33D"/>
</svg>

<svg xmlns="http://www.w3.org/2000/svg" fill="none" viewBox="0 0 21 21"><path fill="#FAC33D" d="M10.313 13a.853.853 0 0 0 .633-.274l4.455-4.398a.708.708 0 0 0 .231-.537.782.782 0 0 0-.799-.772.815.815 0 0 0-.58.24l-3.946 3.907L6.373 7.26a.826.826 0 0 0-.58-.24.777.777 0 0 0-.793.772c0 .217.071.394.225.537l4.455 4.398c.19.188.39.268.633.274Z"/></svg>
